src/layout/variant.svg

<svg width="70" height="18" viewBox="0 0 70 18" fill="none" xmlns="http://www.w3.org/2000/svg">
<path d="M2.8252 6.53711L5.53223 12.4131L8.22852 6.53711H10.9463L5.51074 17.7197L0.118164 6.53711H2.8252Z" fill="#333333"/>
<path d="M19.916 6.53711H22.3438V17H19.916V15.9043C18.9206 16.8353 17.8499 17.3008 16.7041 17.3008C15.2575 17.3008 14.0615 16.778 13.1162 15.7324C12.1781 14.6654 11.709 13.3333 11.709 11.7363C11.709 10.168 12.1781 8.861 13.1162 7.81543C14.0544 6.76986 15.2288 6.24707 16.6396 6.24707C17.8571 6.24707 18.9492 6.74837 19.916 7.75098V6.53711ZM14.1797 11.7363C14.1797 12.7389 14.4482 13.5553 14.9854 14.1855C15.5368 14.8229 16.2314 15.1416 17.0693 15.1416C17.9645 15.1416 18.6878 14.8337 19.2393 14.2178C19.7907 13.5804 20.0664 12.7712 20.0664 11.79C20.0664 10.8089 19.7907 9.99967 19.2393 9.3623C18.6878 8.73926 17.9717 8.42773 17.0908 8.42773C16.2601 8.42773 15.5654 8.74284 15.0068 9.37305C14.4554 10.0104 14.1797 10.7982 14.1797 11.7363Z" fill="#333333"/>
<path d="M25.3945 6.53711H27.8115V7.47168C28.2555 7.00619 28.6494 6.6875 28.9932 6.51562C29.3441 6.33659 29.7594 6.24707 30.2393 6.24707C30.8766 6.24707 31.5426 6.45475 32.2373 6.87012L31.1309 9.08301C30.6725 8.75358 30.2249 8.58887 29.7881 8.58887C28.4704 8.58887 27.8115 9.58431 27.8115 11.5752V17H25.3945V6.53711Z" fill="#333333"/>
<path d="M36.3838 6.53711V17H33.9668V6.53711H36.3838ZM33.6016 2.18652C33.6016 1.764 33.7555 1.39876 34.0635 1.09082C34.3714 0.782878 34.7402 0.628906 35.1699 0.628906C35.6068 0.628906 35.9792 0.782878 36.2871 1.09082C36.5951 1.3916 36.749 1.76042 36.749 2.19727C36.749 2.63411 36.5951 3.00651 36.2871 3.31445C35.9863 3.6224 35.6175 3.77637 35.1807 3.77637C34.7438 3.77637 34.3714 3.6224 34.0635 3.31445C33.7555 3.00651 33.6016 2.63053 33.6016 2.18652Z" fill="#333333"/>
<path d="M47.1582 6.53711H49.5859V17H47.1582V15.9043C46.1628 16.8353 45.0921 17.3008 43.9463 17.3008C42.4997 17.3008 41.3037 16.778 40.3584 15.7324C39.4202 14.6654 38.9512 13.3333 38.9512 11.7363C38.9512 10.168 39.4202 8.861 40.3584 7.81543C41.2966 6.76986 42.471 6.24707 43.8818 6.24707C45.0993 6.24707 46.1914 6.74837 47.1582 7.75098V6.53711ZM41.4219 11.7363C41.4219 12.7389 41.6904 13.5553 42.2275 14.1855C42.779 14.8229 43.4736 15.1416 44.3115 15.1416C45.2067 15.1416 45.93 14.8337 46.4814 14.2178C47.0329 13.5804 47.3086 12.7712 47.3086 11.79C47.3086 10.8089 47.0329 9.99967 46.4814 9.3623C45.93 8.73926 45.2139 8.42773 44.333 8.42773C43.5023 8.42773 42.8076 8.74284 42.249 9.37305C41.6976 10.0104 41.4219 10.7982 41.4219 11.7363Z" fill="#333333"/>
<path d="M52.6367 6.53711H55.0645V7.50391C55.9095 6.66602 56.862 6.24707 57.9219 6.24707C59.1393 6.24707 60.0882 6.63021 60.7686 7.39648C61.3558 8.04818 61.6494 9.11165 61.6494 10.5869V17H59.2217V11.1562C59.2217 10.125 59.0784 9.41243 58.792 9.01855C58.5127 8.61751 58.0042 8.41699 57.2666 8.41699C56.4645 8.41699 55.8952 8.68197 55.5586 9.21191C55.2292 9.7347 55.0645 10.6478 55.0645 11.9512V17H52.6367V6.53711Z" fill="#333333"/>
<path d="M67.2031 8.79297V17H64.7861V8.79297H63.7549V6.53711H64.7861V2.70215H67.2031V6.53711H69.083V8.79297H67.2031Z" fill="#333333"/>
</svg>

<svg width="70" height="18" fill="none" xmlns="http://www.w3.org/2000/svg"><path d="M2.825 6.537l2.707 5.876L8.23 6.537h2.717L5.511 17.72.118 6.537h2.707zM19.916 6.537h2.428V17h-2.428v-1.096c-.995.931-2.066 1.397-3.212 1.397-1.447 0-2.643-.523-3.588-1.569-.938-1.067-1.407-2.399-1.407-3.996 0-1.568.47-2.875 1.407-3.92.938-1.046 2.113-1.569 3.524-1.569 1.217 0 2.31.501 3.276 1.504V6.537zm-5.736 5.2c0 1.002.268 1.818.805 2.448.552.638 1.246.957 2.084.957.896 0 1.619-.308 2.17-.924.552-.638.827-1.447.827-2.428 0-.981-.275-1.79-.827-2.428-.551-.623-1.267-.934-2.148-.934-.83 0-1.526.315-2.084.945-.552.637-.827 1.425-.827 2.363zM25.395 6.537h2.416v.935c.445-.466.838-.785 1.182-.956.351-.18.766-.269 1.246-.269.638 0 1.304.208 1.998.623l-1.106 2.213c-.459-.33-.906-.494-1.343-.494-1.318 0-1.977.995-1.977 2.986V17h-2.416V6.537zM36.384 6.537V17h-2.417V6.537h2.417zm-2.782-4.35c0-.423.154-.788.462-1.096A1.51 1.51 0 0135.17.629c.437 0 .81.154 1.117.462.308.3.462.67.462 1.106 0 .437-.154.81-.462 1.117-.3.308-.67.462-1.106.462-.437 0-.81-.154-1.117-.462a1.534 1.534 0 01-.462-1.127zM47.158 6.537h2.428V17h-2.428v-1.096c-.995.931-2.066 1.397-3.212 1.397-1.446 0-2.642-.523-3.588-1.569-.938-1.067-1.407-2.399-1.407-3.996 0-1.568.47-2.875 1.407-3.92.939-1.046 2.113-1.569 3.524-1.569 1.217 0 2.31.501 3.276 1.504V6.537zm-5.736 5.2c0 1.002.268 1.818.806 2.448.551.638 1.246.957 2.084.957.895 0 1.618-.308 2.17-.924.55-.638.827-1.447.827-2.428 0-.981-.276-1.79-.828-2.428-.551-.623-1.267-.934-2.148-.934-.83 0-1.525.315-2.084.945-.551.637-.827 1.425-.827 2.363zM52.637 6.537h2.428v.967c.845-.838 1.797-1.257 2.857-1.257 1.217 0 2.166.383 2.847 1.15.587.651.88 1.715.88 3.19V17h-2.427v-5.844c0-1.031-.144-1.744-.43-2.137-.28-.401-.788-.602-1.525-.602-.803 0-1.372.265-1.708.795-.33.523-.494 1.436-.494 2.74V17h-2.428V6.537zM67.203 8.793V17h-2.417V8.793h-1.031V6.537h1.031V2.702h2.417v3.835h1.88v2.256h-1.88z" fill="#333"/></svg>
